X:1
T:Untitled by Pleyel EHo.106
T:Untitled by Pleyel EHo.106
T:Pleyel
C:Pleyel
L:1/8
Q:1/4=110
M:3/4
K:Bb
V:1 treble 
V:1
 [DB]4 (cA) | (B2 F2) .F2 | F2 G2 A2 | [Ec]4 [DB] z | c4 d2 | c2 B2 A2 | (AG) F2 =E2 | %7
 ([B,=E]4 [A,F]) z2 :: c4 d2 | _e2 G2 A2 | B2 e2 d2 | (d4 c) z | [DB]4 (cA) | (B2 F2) F2 | %14
 F2 G2 [FA]2 | ([Ec]4 [DB]) z :| %16

